public/images/store.svg

<svg height="147.454" viewBox="0 0 147.454 147.454" width="147.454" xmlns="http://www.w3.org/2000/svg"><path d="m0 0h147.454v147.454h-147.454z" fill="none"/><path d="m113.591 95.159v6.141a12.324 12.324 0 0 1 -12.291 12.291h-86.012a12.284 12.284 0 0 1 -12.288-12.291v-86.012a12.284 12.284 0 0 1 12.288-12.288h86.012a12.324 12.324 0 0 1 12.288 12.288v6.144h-55.288a12.284 12.284 0 0 0 -12.293 12.288v49.151a12.284 12.284 0 0 0 12.293 12.288zm-55.291-12.288h61.439v-49.151h-61.439zm24.576-15.36a9.216 9.216 0 1 1 9.211-9.211 9.2 9.2 0 0 1 -9.216 9.211z" fill="#fff" transform="translate(15.432 15.432)"/></svg>

<svg id="account_balance_wallet-24px" xmlns="http://www.w3.org/2000/svg" width="147.454" height="147.454" viewBox="0 0 147.454 147.454">
  <path id="Path_6307" data-name="Path 6307" d="M0,0H147.454V147.454H0Z" fill="none"/>
  <path id="Path_6308" data-name="Path 6308" d="M113.591,95.159V101.3A12.324,12.324,0,0,1,101.3,113.591H15.288A12.284,12.284,0,0,1,3,101.3V15.288A12.284,12.284,0,0,1,15.288,3H101.3a12.324,12.324,0,0,1,12.288,12.288v6.144H58.3A12.284,12.284,0,0,0,46.007,33.72V82.871A12.284,12.284,0,0,0,58.3,95.159ZM58.3,82.871h61.439V33.72H58.3Zm24.576-15.36A9.216,9.216,0,1,1,92.087,58.3,9.2,9.2,0,0,1,82.871,67.511Z" transform="translate(15.432 15.432)" fill="#fff"/>
</svg>
